assets/img/icons/icon-event.svg

<svg xmlns="http://www.w3.org/2000/svg" viewBox="0 0 48 48">
  <path fill="none" fill-rule="evenodd" stroke="#6991F6" stroke-width="1.5" stroke-linecap="round" stroke-linejoin="round" d="M47.2 45.6c0 .88-.72 1.6-1.6 1.6H2.4c-.88 0-1.6-.72-1.6-1.6V7.2c0-.88.72-1.6 1.6-1.6h43.2c.88 0 1.6.72 1.6 1.6v38.4zM16 .8v8M32 .8v8 M13.6 23.2h-3.2V20h3.2v3.2zM25.6 23.2h-3.2V20h3.2v3.2zM37.6 23.2h-3.2V20h3.2v3.2zM13.6 35.2h-3.2V32h3.2v3.2zM25.6 35.2h-3.2V32h3.2v3.2zM39.2 30.4l-6.4 6.4M39.2 36.8l-6.4-6.4"/>
</svg>

<svg width="48px" height="48px" viewBox="0 0 48 48" version="1.1" xmlns="http://www.w3.org/2000/svg" xmlns:xlink="http://www.w3.org/1999/xlink" xmlns:sketch="http://www.bohemiancoding.com/sketch/ns">
    <g id="-Blog" stroke="none" stroke-width="1" fill="none" fill-rule="evenodd" sketch:type="MSPage">
        <g id="Taxonomy-view" sketch:type="MSArtboardGroup" transform="translate(-96.000000, -926.000000)" stroke="#6991F6" stroke-width="1.5" stroke-linecap="round" stroke-linejoin="round">
            <g id="Group" sketch:type="MSLayerGroup" transform="translate(96.000000, 926.000000)">
                <path d="M47.2,45.6 C47.2,46.48 46.48,47.2 45.6,47.2 L2.4,47.2 C1.52,47.2 0.8,46.48 0.8,45.6 L0.8,7.2 C0.8,6.32 1.52,5.6 2.4,5.6 L45.6,5.6 C46.48,5.6 47.2,6.32 47.2,7.2 L47.2,45.6 L47.2,45.6 Z" id="Stroke-1" sketch:type="MSShapeGroup"></path>
                <path d="M16,0.8 L16,8.8" id="Stroke-3" sketch:type="MSShapeGroup"></path>
                <path d="M32,0.8 L32,8.8" id="Stroke-5" sketch:type="MSShapeGroup"></path>
                <path d="M13.6,23.2 L10.4,23.2 L10.4,20 L13.6,20 L13.6,23.2 Z" id="Stroke-7" sketch:type="MSShapeGroup"></path>
                <path d="M25.6,23.2 L22.4,23.2 L22.4,20 L25.6,20 L25.6,23.2 Z" id="Stroke-9" sketch:type="MSShapeGroup"></path>
                <path d="M37.6,23.2 L34.4,23.2 L34.4,20 L37.6,20 L37.6,23.2 Z" id="Stroke-10" sketch:type="MSShapeGroup"></path>
                <path d="M13.6,35.2 L10.4,35.2 L10.4,32 L13.6,32 L13.6,35.2 Z" id="Stroke-11" sketch:type="MSShapeGroup"></path>
                <path d="M25.6,35.2 L22.4,35.2 L22.4,32 L25.6,32 L25.6,35.2 Z" id="Stroke-12" sketch:type="MSShapeGroup"></path>
                <path d="M39.2,30.4 L32.8,36.8" id="Stroke-13" sketch:type="MSShapeGroup"></path>
                <path d="M39.2,36.8 L32.8,30.4" id="Stroke-14" sketch:type="MSShapeGroup"></path>
            </g>
        </g>
    </g>
</svg>
